X:1
T:Dichterliebe, Op.48
T:Hör' ich das Liedchen klingen
T:Robert Schumann  
T: 10. Hör' ich das Liedchen klingen
T: Dichterliebe, Op.48 
T:Heinrich Heine
T:OpenScore (CC0)
T:OpenScore (CC0)
T:OpenScore (CC0)
C:Robert Schumann
Z:Heinrich Heine
Z:OpenScore (CC0)
%%score 1 { ( 2 5 6 ) | ( 3 4 ) }
L:1/8
Q:1/4=30
M:2/4
K:Bb
V:1 treble nm="Voice"
V:2 treble nm="Piano"
V:5 treble 
V:6 treble 
V:3 bass 
V:4 bass 
V:1
"^Langsam" z4 | z4 | z4 | z4 |!p! B B/ B/ A A | G G z A | D3/2 D/ ^F F | G z z G | %8
w: ||||Hör' ich das Lied- chen|klin- gen, das|einst die Lieb- ste|sang, so|
 G G/ G/ =B3/2 B/ | c c z _d | G3/2 G/ =B3/2 B/ | c2 z c | c F/ F/ F3/2 F/ | F B z B | %14
w: will mir die Brust zer-|sprin- gen von|wil- dem Schmer- zen-|drang. Es|treibt mich ein dunk- les|Seh- nen hin-|
 B3/2 E/ E E | (EA) z A | A3/2 A/ (A/4B/4 c) B/ | A G z G | B3/2 B/ A3/2 A/ | G2 z2 | z4 | z4 | %22
w: auf zur Wal- des-|höh', _ dort|löst sich auf _ _ in|Thrä- nen mein|ü- ber- gros- ses|Weh.|||
 z4 | z4 | z4 | z4 | z4 | z4 | z4 | z4 |] %30
w: ||||||||
V:2
!p! z/ (b3/2 z/ a3/2 | z/ g3/2 z/ a3/2 | z/ d3/2 z/ ^f3/2 | z/ g3/2 z/ g3/2) | %4
 z/ B/D/[I:staff +1]B,/[I:staff -1] z/ A/C/[I:staff +1]^F,/ | %5
[I:staff -1] z/ G/B,/[I:staff +1]G,/[I:staff -1] z/ A/C/[I:staff +1]E,/ | %6
[I:staff -1] z/ D/B,/[I:staff +1]G,/[I:staff -1] z/ D/A,/[I:staff +1]^F,/ | %7
[I:staff -1] z/ D/B,/[I:staff +1]G,/[I:staff -1] z/ G/D/[I:staff +1]G,/ | %8
[I:staff -1] z/ e3/2- e<d- | d<c- c<_d- | d<G- G<=B- | B<c z/ c/E/[I:staff +1]_G,/ | %12
[I:staff -1] z/ c/E/[I:staff +1]F,/[I:staff -1] z/ F/E/[I:staff +1]F,/ | %13
[I:staff -1] z/ F/D/[I:staff +1]F,/[I:staff -1] z/ B/D/[I:staff +1]F,/ | %14
[I:staff -1] z/ B/[DE]/[I:staff +1]E,/[I:staff -1] z/ E/D/[I:staff +1]E,/ | %15
[I:staff -1] z/ E/C/[I:staff +1]G,/[I:staff -1] z/ A/C/[I:staff +1]E,/ | %16
[I:staff -1] z/ A/C/[I:staff +1]D,/[I:staff -1] z/ A/C/[I:staff +1]^F,/ | %17
[I:staff -1] z/ G/B,/[I:staff +1]G,/[I:staff -1] z/ G/B,/[I:staff +1]G,/ | %18
[I:staff -1] z/ b3/2- b<a- | a<g- g<a- | a<d- d<^f | ^f/g/ !>!G2 !>!A | A<D- D<^F- | F>G-!<(! GG | %24
 G G2!<)! G | (D/d/c/B/ A/B/A/G/ |!>(! ^F/G/E/D/ ^C/D/!>)! F | G/B,/-"^dim." [B,G]3-) | [B,G]4- | %29
 !fermata![B,G]4 |] %30
V:3
 G,2 D,2 | E,2 C,2 | D,2 D,2 | G,2 G,2 | G,2 D,2 | E,2 C,2 | D,2 D,2 | G,,2 B,,2 | C,2 D,2 | %9
 z/[I:staff -1] c/G/[I:staff +1]C/ z/[I:staff -1] _d/_A/[I:staff +1]_D/ | %10
 z/[I:staff -1] G/E/[I:staff +1]C/ z/[I:staff -1] =B/F/[I:staff +1]G,/ | %11
 z/[I:staff -1] c/E/[I:staff +1]G,/ x2 | A,,2 A,,2 | B,,2 A,,2 | G,,2 G,,2 | A,,2 G,,2 | %16
 ^F,,2 D,,2 | E,,2 D,,2 | C,,2 D,,2 | G,,2 C,2 | D,2 D,2 | E,2 C,2 | D,2 D,,2 | B,,,>D, C,,>E, | %24
 D,,>F, E,,>G, | D,, z [G,^C] z | B,3- B,/A,/- | %27
 A,/[I:staff -1]B,/[I:staff +1]A,/G,/ ^F,/G,/E,/D,/ | ^C,/D,/-=C,/B,,/ A,,/B,,/A,,/G,,/ | D,4 |] %30
V:4
 x/[I:staff -1] b/d/[I:staff +1]D/ x/[I:staff -1] a/c/[I:staff +1]^F/ | %1
 x/[I:staff -1] g/B/[I:staff +1]G/ x/[I:staff -1] a/c/[I:staff +1]E/ | %2
 x/[I:staff -1] d/B/[I:staff +1]D/ x/[I:staff -1] ^f/c/[I:staff +1]D/ | %3
 x/[I:staff -1] g/B/[I:staff +1]D/ x/[I:staff -1] g/B/[I:staff +1]D/ | x4 | x4 | x4 | x4 | %8
 x/[I:staff -1] e/G/[I:staff +1]G,/ z/[I:staff -1] d/F/[I:staff +1]=B,/ | E,2 F,2 | G,2 G,,2 | %11
 C,2 B,,2 | x4 | x4 | x4 | x4 | x4 | x4 | %18
 x/[I:staff -1] b/d/[I:staff +1]D/ z/[I:staff -1] a/c/[I:staff +1]D/ | %19
 z/[I:staff -1] g/B/[I:staff +1]D/ z/[I:staff -1] a/c/[I:staff +1]E/ | %20
 x[I:staff -1] B/[I:staff +1]D/ x[I:staff -1] A/[I:staff +1]C/ | %21
 x[I:staff -1] G/[I:staff +1]B,/ x2 | x[I:staff -1] B,/[I:staff +1]G,/ x2 | B,,,2 C,,2 | %24
 D,,2 E,,2 | x2 [D,B,]2- | D,4 | G,,4 | x/ D,3/2 D,2- | !fermata!G,,4 |] %30
V:5
 x4 | x4 | x4 | x4 | x4 | x4 | x4 | x4 | x4 | x4 | x4 | x4 | x4 | x4 | x4 | x4 | x4 | x4 | x4 | %19
 x4 | z !>!B2 !>!A | A x z/ E[I:staff +1]C/ |[I:staff -1] z !>!B,2 !>!A,/-[I:staff +1]D,/ | %23
[I:staff -1] A,G, G,/_A,=A,/- | A,/B,=B,C^C/ | x4 | x3 =C | G x3 | x4 | x4 |] %30
V:6
 x4 | x4 | x4 | x4 | x4 | x4 | x4 | x4 | x4 | x4 | x4 | x4 | x4 | x4 | x4 | x4 | x4 | x4 | x4 | %19
 x4 | x4 | x4 | x2 x A, | ^F<D x2 | x4 | x4 | x4 | x4 | x4 | x4 |] %30

